X:3258
L:1/4
M:3/4
K:C
 G/c/ | e- e/d/ e/g/ | e d e | a- a/g/ a/b/ | a g e | d- d/c/ d/e/ |1 d c d | e- e/d/ c/A/ | G2 :|2 
 d c e/d/ | c- c/B/ c/d/ | c2 || F | A F F | F [FA] c/A/ | G E- E/F/ | E D E | G D- D/E/ | D C D | 
 E- E/D/ C/D/ | C2 F/G/ | A F [FA]- | [FA] A c/A/ | G E- E/F/ | E D E | G D- D/E/ | D C- C/D/ | 
 C- C/ z/ C/D/ | C2 ||

